X: 42819
T: Why Fight It?
R: reel
M: 4/4
K: Dmixolydian
Adde fded|dcAB cAEG|Adde fded|dcAB c2 c2|Adde fded|dcAB c3 g|
gedc Bc d2|Bcdc BA G2:|efge ce g2|fd ~d2 fg a2|efge ce g2|fedf e3 e|
efge ce g2|fd ~d2 fg a2|gfeg fedf|edcA d3 z|efge ce g2|fd ~d2 fg a2|
efge ce g2|fedf e3 e|efge ce g2|fd ~d2 fg a2|gfeg fedf|edcA d3 z||

